X:1
T:Title
L:1/8
M:9/8
K:Ab
V:1 treble nm="Grand Piano"
V:1
 z3 z3 z2 A | A2 G G2 F F2 G | A6- A2 A | A2 G G2 F =E2 F | G6- G2 B | B2 A A2 G A2 B | %6
 BcB A3- A2 A | A2 G G2 F =E2 G | F8- F | C2 C F2 F E2 D | F3 C6 | C2 C F2 G A2 B | G8- G | %13
 G2 A B2 B G2 A | B8- B | B2 B c2 c- ccB | c6- c2 c | c2 B B2 A- ABc | d6- d2 B | B2 A A2 G- GAB | %20
 c6- c2 A | A2 G F2 F B2 A | G6- G2 B | B2 B B2 G A2 B | c6- c2 c | c2 B =A2 A- ABc | d6- d2 B | %27
 B2 A G2 G- GAB | c6- c2 A | A2 G F2 F B2 A | G6- G2 G | G2 F =E2 C A2 G | F6- F2 z |] %33

